resources/svg/send-left.svg

<svg xmlns="http://www.w3.org/2000/svg" viewBox="0 0 15 15" fill="currentColor"><path fill-rule="evenodd" clip-rule="evenodd" d="M13 1H14V14H13V1ZM2.70711 8L5.85355 11.1464L5.14645 11.8536L0.792892 7.5L5.14645 3.14645L5.85355 3.85355L2.70711 7H12V8H2.70711Z" fill="black"/></svg>

<svg xmlns="http://www.w3.org/2000/svg" viewBox="0 0 15 15" fill="currentColor"><path fill-rule="evenodd" clip-rule="evenodd" d="M13 1h1v13h-1V1zM2.707 8l3.147 3.146-.708.708L.793 7.5l4.353-4.354.708.708L2.707 7H12v1H2.707z" fill="currentColor"/></svg>
